ocio/luts/st2084_to_nits.spi1d
Version 1
From 0.0000000000000000 1.0000000000000000
Length 4096
Components 1
{
 0.0000000000000000
 0.0000036848776409
 0.0000123683928564
 0.0000247573036423
 0.0000403724717189
 0.0000589473947986
 0.0000803101538585
 0.0001043405445429
 0.0001309501832063
 0.0001600718524469
 0.0001916532200130
 0.0002256528697579
 0.0002620376576987
 0.0003007808760336
 0.0003418609345958
 0.0003852603872127
 0.0004309651957331
 0.0004789641624962
 0.0005292484850840
 0.0005818114017202
 0.0006366479051002
 0.0006937545087207
 0.0007531290540673
 0.0008147705500118
 0.0008786790378944
 0.0009448554773055
 0.0010133016487080
 0.0010840200698784
 0.0011570139237824
 0.0012322869959767
 0.0013098436200051
 0.0013896886295434
 0.0014718273162765
 0.0015562653926693
 0.0016430089589387
 0.0017320644736475
 0.0018234387274359
 0.0019171388194821
 0.0020131721363462
 0.0021115463329033
 0.0022122693151141
 0.0023153492244164
 0.0024207944235540
 0.0025286134836793
 0.0026388151725915
 0.0027514084439891
 0.0028664024276296
 0.0029838064203045
 0.0031036298775457
 0.0032258824059944
 0.0033505737563658
 0.0034777138169537
 0.0036073126076277
 0.0037393802742731
 0.0038739270836389
 0.0040109634185550
 0.0041504997734877
 0.0042925467504043
 0.0044371150549224
 0.0045842154927187
 0.0047338589661778
 0.0048860564712604
 0.0050408190945763
 0.0051981580106437
 0.0053580844793220
 0.0055206098434053
 0.0056857455263639
 0.0058535030302247
 0.0060238939335784
 0.0061969298897062
 0.0063726226248167
 0.0065509839363872
 0.0067320256915987
 0.0069157598258635
 0.0071021983414341
 0.0072913533060920
 0.0074832368519087
 0.0076778611740762
 0.0078752385298019
 0.0080753812372628
 0.0082783016746173
 0.0084840122790704
 0.0086925255459880
 0.0089038540280590
 0.0091180103345021
 0.0093350071303137
 0.0095548571355555
 0.0097775731246791
 0.0100031679258856
 0.0102316544205199
 0.0104630455424940
 0.0106973542777413
 0.0109345936636992
 0.0111747767888168
 0.0114179167920908
 0.0116640268626217
 0.0119131202391947
 0.0121652102098826
 0.0124203101116668
 0.0126784333300809
 0.0129395932988698
 0.0132038034996680
 0.0134710774616940
 0.0137414287614616
 0.0140148710225045
 0.0142914179151173
 0.0145710831561085
 0.0148538805085683
 0.0151398237816473
 0.0154289268303477
 0.0157212035553281
 0.0160166679027152
 0.0163153338639280
 0.0166172154755134
 0.0169223268189885
 0.0172306820206949
 0.0175422952516569
 0.0178571807274567
 0.0181753527081072
 0.0184968254979400
 0.0188216134454984
 0.0191497309434373
 0.0194811924284285
 0.0198160123810759
 0.0201542053258339
 0.0204957858309341
 0.0208407685083133
 0.0211891680135551
 0.0215409990458285
 0.0218962763478356
 0.0222550147057660
 0.0226172289492502
 0.0229829339513241
 0.0233521446283924
 0.0237248759402023
 0.0241011428898117
 0.0244809605235744
 0.0248643439311153
 0.0252513082453217
 0.0256418686423282
 0.0260360403415106
 0.0264338386054828
 0.0268352787400933
 0.0272403760944304
 0.0276491460608217
 0.0280616040748496
 0.0284777656153545
 0.0288976462044533
 0.0293212614075521
 0.0297486268333662
 0.0301797581339395
 0.0306146710046690
 0.0310533811843305
 0.0314959044551028
 0.0319422566426009
 0.0323924536159077
 0.0328465112876057
 0.0333044456138149
 0.0337662725942283
 0.0342320082721518
 0.0347016687345479
 0.0351752701120747
 0.0356528285791339
 0.0361343603539152
 0.0366198816984455
 0.0371094089186360
 0.0376029583643351
 0.0381005464293797
 0.0386021895516491
 0.0391079042131220
 0.0396177069399282
 0.0401316143024120
 0.0406496429151878
 0.0411718094371998
 0.0416981305717860
 0.0422286230667400
 0.0427633037143708
 0.0433021893515769
 0.0438452968599019
 0.0443926431656068
 0.0449442452397413
 0.0455001200982033
 0.0460602848018176
 0.0466247564564054
 0.0471935522128523
 0.0477666892671857
 0.0483441848606433
 0.0489260562797573
 0.0495123208564164
 0.0501029959679552
 0.0506980990372235
 0.0512976475326671
 0.0519016589684045
 0.0525101509043109
 0.0531231409460947
 0.0537406467453778
 0.0543626859997797
 0.0549892764530030
 0.0556204358949075
 0.0562561821616054
 0.0568965331355347
 0.0575415067455556
 0.0581911209670258
 0.0588453938218950
 0.0595043433787889
 0.0601679877530963
 0.0608363451070586
 0.0615094336498568
 0.0621872716377064
 0.0628698773739433
 0.0635572692091102
 0.0642494655410581
 0.0649464848150331
 0.0656483455237657
 0.0663550662075664
 0.0670666654544195
 0.0677831619000806
 0.0685045742281608
 0.0692309211702332
 0.0699622215059200
 0.0706984940629940
 0.0714397577174692
 0.0721860313937040
 0.0729373340644964
 0.0736936847511750
 0.0744551025237097
 0.0752216065008061
 0.0759932158499915
 0.0767699497877361
 0.0775518275795370
 0.0783388685400286
 0.0791310920330746
 0.0799285174718750
 0.0807311643190687
 0.0815390520868313
 0.0823522003369846
 0.0831706286810858
 0.0839943567805473
 0.0848234043467364
 0.0856577911410658
 0.0864975369751151
 0.0873426617107319
 0.0881931852601294
 0.0890491275859939
 0.0899105087016042
 0.0907773486709240
 0.0916496676087078
 0.0925274856806179
 0.0934108231033271
 0.0942997001446214
 0.0951941371235240
 0.0960941544103793
 0.0969997724269893
 0.0979110116466999
 0.0988278925945240
 0.0997504358472490
 0.1006786620335472
 0.1016125918340807
 0.1025522459816160
 0.1034976452611450
 0.1044488105099779
 0.1054057626178714
 0.1063685225271358
 0.1073371112327439
 0.1083115497824504
 0.1092918592769020
 0.1102780608697467
 0.1112701757677575
 0.1122682252309410
 0.1132722305726471
 0.1142822131597038
 0.1152981944124990
 0.1163201958051349
 0.1173482388655090
 0.1183823451754589
 0.1194225363708531
 0.1204688341417342
 0.1215212602324117
 0.1225798364415966
 0.1236445846225135
 0.1247155266830160
 0.1257926845857100
 0.1268760803480719
 0.1279657360425581
 0.1290616737967385
 0.1301639157934081
 0.1312724842707133
 0.1323874015222640
 0.1335086898972562
 0.1346363718005932
 0.1357704696930195
 0.1369110060912178
 0.1380580035679551
 0.1392114847521791
 0.1403714723291744
 0.1415379890406520
 0.1427110576848931
 0.1438907011168642
 0.1450769422483406
 0.1462698040480330
 0.1474693095417189
 0.1486754818123406
 0.1498883440001679
 0.1511079193028944
 0.1523342309757673
 0.1535673023317317
 0.1548071567415326
 0.1560538176338503
 0.1573073084954329
 0.1585676528712246
 0.1598348743644722
 0.1611089966368765
 0.1623900434087124
 0.1636780384589463
 0.1649730056253834
 0.1662749688047827
 0.1675839519529892
 0.1688999790850549
 0.1702230742753963
 0.1715532616578842
 0.1728905654260184
 0.1742350098330051
 0.1755866191919463
 0.1769454178759129
 0.1783114303181293
 0.1796846810120645
 0.1810651945115866
 0.1824529954310899
 0.1838481084456237
 0.1852505582910088
 0.1866603697640189
 0.1880775677224737
 0.1895021770853678
 0.1909342228330400
 0.1923737300072738
 0.1938207237114458
 0.1952752291106649
 0.1967372714319036
 0.1982068759641310
 0.1996840680584402
 0.2011688731282193
 0.2026613166492323
 0.2041614241597998
 0.2056692212609311
 0.2071847336164344
 0.2087079869530764
 0.2102390070607447
 0.2117778197925074
 0.2133244510648404
 0.2148789268577195
 0.2164412732147425
 0.2180115162433374
 0.2195896821148248
 0.2211757970645852
 0.2227698873922406
 0.2243719794617245
 0.2259820997014715
 0.2276002746045488
 0.2292265307287835
 0.2308608946969352
 0.2325033931967732
 0.2341540529813124
 0.2358129008688861
 0.2374799637432875
 0.2391552685539649
 0.2408388423161369
 0.2425307121109103
 0.2442309050854593
 0.2459394484531580
 0.2476563694937379
 0.2493816955534082
 0.2511154540450111
 0.2528576724481964
 0.2546083783094964
 0.2563675992425609
 0.2581353629282472
 0.2599116971147674
 0.2616966296178728
 0.2634901883209455
 0.2652924011752167
 0.2671032961998359
 0.2689229014821002
 0.2707512451775507
 0.2725883555100924
 0.2744342607722540
 0.2762889893252228
 0.2781525695990471
 0.2800250300927954
 0.2819063993746856
 0.2837967060822317
 0.2856959789224261
 0.2876042466718474
 0.2895215381768640
 0.2914478823537236
 0.2933833081887791
 0.2953278447385820
 0.2972815211300468
 0.2992443665606478
 0.3012164102985206
 0.3031976816826197
 0.3051882101229173
 0.3071880251005031
 0.3091971561678155
 0.3112156329486880
 0.3132434851385920
 0.3152807425047690
 0.3173274348863879
 0.3193835921946984
 0.3214492444131629
 0.3235244215976792
 0.3256091538766436
 0.3277034714512314
 0.3298074045954418
 0.3319209836563092
 0.3340442390540659
 0.3361772012822853
 0.3383199009080543
 0.3404723685720986
 0.3426346349890352
 0.3448067309474018
 0.3469886873099120
 0.3491805350136027
 0.3513823050699780
 0.3535940285651656
 0.3558157366600966
 0.3580474605906604
 0.3602892316678746
 0.3625410812780451
 0.3648030408829378
 0.3670751420199067
 0.3693574163021030
 0.3716498954186351
 0.3739526111346923
 0.3762655952917595
 0.3785888798077657
 0.3809224966772389
 0.3832664779714624
 0.3856208558387087
 0.3879856625043117
 0.3903609302709119
 0.3927466915185807
 0.3951429787049912
 0.3975498243656181
 0.3999672611138876
 0.4023953216413075
 0.4048340387177524
 0.4072834451914658
 0.4097435739893865
 0.4122144581172150
 0.4146961306596457
 0.4171886247805050
 0.4196919737229417
 0.4222062108095969
 0.4247313694427579
 0.4272674831045576
 0.4298145853571076
 0.4323727098427381
 0.4349418902841131
 0.4375221604844227
 0.4401135543275774
 0.4427161057783248
 0.4453298488825413
 0.4479548177672347
 0.4505910466408978
 0.4532385697935764
 0.4558974215970493
 0.4585676365051121
 0.4612492490535514
 0.4639422938605801
 0.4666468056267729
 0.4693628191354133
 0.4720903692526036
 0.4748294909274486
 0.4775802191922103
 0.4803425891625854
 0.4831166360377442
 0.4859023951006652
 0.4886999017181651
 0.4915091913411969
 0.4943302995049951
 0.4971632618291833
 0.5000081140181392
 0.5028648918609517
 0.5057336312317683
 0.5086143680899525
 0.5115071384801846
 0.5144119785327584
 0.5173289244636935
 0.5202580125749136
 0.5231992792544935
 0.5261527609768286
 0.5291184943027286
 0.5320965158797681
 0.5350868624423339
 0.5380895708118706
 0.5411046778970869
 0.5441322206940929
 0.5471722362866244
 0.5502247618462547
 0.5532898346325095
 0.5563674919931583
 0.5594577713642416
 0.5625607102705180
 0.5656763463253973
 0.5688047172312645
 0.5719458607797030
 0.5750998148515185
 0.5782666174172013
 0.5814463065368646
 0.5846389203605040
 0.5878444971283521
 0.5910630751708525
 0.5942946929089703
 0.5975393888543578
 0.6007972016096180
 0.6040681698683817
 0.6073523324155953
 0.6106497281276319
 0.6139603959726369
 0.6172843750105677
 0.6206217043934941
 0.6239724233657225
 0.6273365712640619
 0.6307141875179847
 0.6341053116498349
 0.6375099832750759
 0.6409282421023398
 0.6443601279338523
 0.6478056806654324
 0.6512649402867885
 0.6547379468817711
 0.6582247406284844
 0.6617253617994711
 0.6652398507620145
 0.6687682479783228
 0.6723105940055940
 0.6758669294964420
 0.6794372951989601
 0.6830217319569378
 0.6866202807100784
 0.6902329824942758
 0.6938598784416896
 0.6975010097810322
 0.7011564178378094
 0.7048261440344925
 0.7085102298906067
 0.7122087170232210
 0.7159216471468997
 0.7196490620739765
 0.7233910037148515
 0.7271475140781393
 0.7309186352708659
 0.7347044094986777
 0.7385048790661329
 0.7423200863768235
 0.7461500739336241
 0.7499948843389107
 0.7538545602947201
 0.7577291446031197
 0.7616186801661977
 0.7655232099864608
 0.7694427771669792
 0.7733774249115811
 0.7773271965251284
 0.7812921354136805
 0.7852722850847745
 0.7892676891474896
 0.7932783913129516
 0.7973044353942284
 0.8013458653067598
 0.8054027250685196
 0.8094750588002378
 0.8135629107255911
 0.8176663251714884
 0.8217853465682303
 0.8259200194497239
 0.8300703884537963
 0.8342364983223287
 0.8384183939015399
 0.8426161201420962
 0.8468297220995428
 0.8510592449343164
 0.8553047339120592
 0.8595662344039076
 0.8638437918866253
 0.8681374519428012
 0.8724472602612431
 0.8767732626370706
 0.8811155049718643
 0.8854740332741802
 0.8898488936594610
 0.8942401323504849
 0.8986477956774426
 0.9030719300783332
 0.9075125820990534
 0.9119697983936803
 0.9164436257246744
 0.9209341109632244
 0.9254413010893163
 0.9299652431920827
 0.9345059844700425
 0.9390635722311751
 0.9436380538934034
 0.9482294769846377
 0.9528378891430744
 0.9574633381174241
 0.9621058717672166
 0.9667655380629128
 0.9714423850862492
 0.9761364610304110
 0.9808478142003261
 0.9855764930128613
 0.9903225459970023
 0.9950860217943146
 0.9998669691588991
 1.0046654369578578
 1.0094814741714195
 1.0143151298932287
 1.0191664533305240
 1.0240354938045002
 1.0289223007504353
 1.0338269237179090
 1.0387494123713237
 1.0436898164897890
 1.0486481859674899
 1.0536245708141443
 1.0586190211548949
 1.0636315872308308
 1.0686623193991194
 1.0737112681332697
 1.0787784840234320
 1.0838640177764969
 1.0889679202165485
 1.0940902422850480
 1.0992310350409171
 1.1043903496610505
 1.1095682374403730
 1.1147647497922299
 1.1199799382485582
 1.1252138544600307
 1.1304665501967031
 1.1357380773477321
 1.1410284879220134
 1.1463378340483961
 1.1516661679757525
 1.1570135420734189
 1.1623800088312821
 1.1677656208603802
 1.1731704308925655
 1.1785944917814883
 1.1840378565022489
 1.1895005781519843
 1.1949827099499704
 1.2004843052380474
 1.2060054174806902
 1.2115461002655250
 1.2171064073032249
 1.2226863924281948
 1.2282861095985078
 1.2339056128962531
 1.2395449565279084
 1.2452041948245134
 1.2508833822420133
 1.2565825733613296
 1.2623018228888625
 1.2680411856566713
 1.2738007166226957
 1.2795804708709899
 1.2853805036122568
 1.2912008701838051
 1.2970416260498923
 1.3029028268020997
 1.3087845281595782
 1.3146867859693039
 1.3206096562062322
 1.3265531949737492
 1.3325174585038566
 1.3385025031575424
 1.3445083854248809
 1.3505351619253749
 1.3565828894083640
 1.3626516247531673
 1.3687414249694345
 1.3748523471972227
 1.3809844487076144
 1.3871377869026673
 1.3933124193160038
 1.3995084036128673
 1.4057257975903787
 1.4119646591780923
 1.4182250464378867
 1.4245070175645143
 1.4308106308859989
 1.4371359448635002
 1.4434830180919827
 1.4498519093003941
 1.4562426773517096
 1.4626553812436955
 1.4690900801087285
 1.4755468332144057
 1.4820256999636314
 1.4885267398950393
 1.4950500126831401
 1.5015955781388495
 1.5081634962094834
 1.5147538269792347
 1.5213666306694662
 1.5280019676388545
 1.5346598983839241
 1.5413404835391782
 1.5480437838773045
 1.5547698603096833
 1.5615187738865217
 1.5682905857973723
 1.5750853573710950
 1.5819031500763518
 1.5887440255219434
 1.5956080454570616
 1.6024952717715086
 1.6094057664960939
 1.6163395918028973
 1.6232968100055516
 1.6302774835595992
 1.6372816750627845
 1.6443094472553166
 1.6513608630201353
 1.6584359853833501
 1.6655348775144541
 1.6726576027266453
 1.6798042244770117
 1.6869748063671253
 1.6941694121431317
 1.7013881056959865
 1.7086309510620836
 1.7158980124231462
 1.7231893541070402
 1.7305050405874716
 1.7378451364849075
 1.7452097065664038
 1.7525988157461678
 1.7600125290859838
 1.7674509117951245
 1.7749140292310834
 1.7824019468996548
 1.7899147304552481
 1.7974524457014838
 1.8050151585909178
 1.8126029352261841
 1.8202158418594039
 1.8278539448933460
 1.8355173108812470
 1.8432060065270996
 1.8509200986862560
 1.8586596543656901
 1.8664247407240919
 1.8742154250723786
 1.8820317748740729
 1.8898738577454843
 1.8977417414560340
 1.9056354939288713
 1.9135551832405995
 1.9215008776222298
 1.9294726454592175
 1.9374705552916736
 1.9454946758151308
 1.9535450758802797
 1.9616218244937611
 1.9697249908183116
 1.9778546441731788
 1.9860108540342951
 1.9941936900348054
 2.0024032219653747
 2.0106395197741458
 2.0189026535677610
 2.0271926936111515
 2.0355097103281588
 2.0438537743015668
 2.0522249562737871
 2.0606233271470904
 2.0690489579836107
 2.0775019200064331
 2.0859822845991793
 2.0944901233067248
 2.1030255078353659
 2.1115885100534526
 2.1201792019913439
 2.1287976558421939
 2.1374439439619959
 2.1461181388696620
 2.1548203132480803
 2.1635505399440369
 2.1723088919684055
 2.1810954424968334
 2.1899102648700866
 2.1987534325940059
 2.2076250193401821
 2.2165250989464820
 2.2254537454168859
 2.2344110329222056
 2.2433970358004998
 2.2524118285570105
 2.2614554858651799
 2.2705280825661656
 2.2796296936700640
 2.2887603943556769
 2.2979202599708617
 2.3071093660334507
 2.3163277882310700
 2.3255756024215422
 2.3348528846334995
 2.3441597110667747
 2.3534961580922813
 2.3628623022530912
 2.3722582202640856
 2.3816839890127715
 2.3911396855595961
 2.4006253871382746
 2.4101411711558960
 2.4196871151937969
 2.4292632970075467
 2.4388697945273612
 2.4485066858587761
 2.4581740492824604
 2.4678719632552131
 2.4776005064097117
 2.4873597575556894
 2.4971497956794040
 2.5069706999446799
 2.5168225496928787
 2.5267054244436427
 2.5366194038948131
 2.5465645679234252
 2.5565409965854742
 2.5665487701165994
 2.5765879689324129
 2.5866586736289872
 2.5967609649831576
 2.6068949239526136
 2.6170606316769383
 2.6272581694774084
 2.6374876188574579
 2.6477490615036134
 2.6580425792852145
 2.6683682542547151
 2.6787261686490473
 2.6891164048889373
 2.6995390455798280
 2.7099941735123316
 2.7204818716622250
 2.7310022231911901
 2.7415553114471396
 2.7521412199646318
 2.7627600324649237
 2.7734118328569979
 2.7840967052373014
 2.7948147338909575
 2.8055660032908771
 2.8163505980996484
 2.8271686031689569
 2.8380201035403645
 2.8489051844452833
 2.8598239313062366
 2.8707764297362277
 2.8817627655402012
 2.8927830247142476
 2.9038372934472556
 2.9149256581202909
 2.9260482053077581
 2.9372050217773595
 2.9483961944905497
 2.9596218106031533
 2.9708819574657670
 2.9821767226237883
 2.9935061938181922
 3.0048704589860868
 3.0162696062606118
 3.0277037239719609
 3.0391729006469612
 3.0506772250105767
 3.0622167859855303
 3.0737916726927184
 3.0854019744523611
 3.0970477807836834
 3.1087291814054465
 3.1204462662366819
 3.1321991253968351
 3.1439878492064599
 3.1558125281873064
 3.1676732530631768
 3.1795701147599096
 3.1915032044059308
 3.2034726133329525
 3.2154784330760702
 3.2275207553744623
 3.2395996721713169
 3.2517152756154446
 3.2638676580599197
 3.2760569120640790
 3.2882831303932387
 3.3005464060196665
 3.3128468321216982
 3.3251845020860538
 3.3375595095068111
 3.3499719481865595
 3.3624219121365391
 3.3749094955773580
 3.3874347929388646
 3.3999978988614363
 3.4125989081959007
 3.4252379160038759
 3.4379150175584945
 3.4506303083447070
 3.4633838840598905
 3.4761758406145202
 3.4890062741312775
 3.5018752809477962
 3.5147829576147274
 3.5277294008982696
 3.5407147077787422
 3.5537389754525224
 3.5668023013319945
 3.5799047830455910
 3.5930465184387419
 3.6062276055743783
 3.6194481427329261
 3.6327082284134682
 3.6460079613332432
 3.6593474404291513
 3.6727267648575719
 3.6861460339947376
 3.6996053474378892
 3.7131048050048361
 3.7266445067353580
 3.7402245528907256
 3.7538450439550513
 3.7675060806353131
 3.7812077638617456
 3.7949501947882887
 3.8087334747935762
 3.8225577054808424
 3.8364229886786196
 3.8503294264412768
 3.8642771210493838
 3.8782661750101091
 3.8922966910579655
 3.9063687721552962
 3.9204825214922612
 3.9346380424877871
 3.9488354387902289
 3.9630748142768906
 3.9773562730560901
 3.9916799194659021
 4.0060458580760807
 4.0204541936874829
 4.0349050313333805
 4.0493984762794035
 4.0639346340240383
 4.0785136102998125
 4.0931355110732417
 4.1078004425445043
 4.1225085111501185
 4.1372598235609512
 4.1520544866846993
 4.1668926076649653
 4.1817742938830280
 4.1966996529570428
 4.2116687927434429
 4.2266818213377615
 4.2417388470733428
 4.2568399785243196
 4.2719853245039374
 4.2871749940668531
 4.3024090965075912
 4.3176877413638124
 4.3330110384138845
 4.3483790976794960
 4.3637920294253849
 4.3792499441594606
 4.3947529526346534
 4.4103011658478373
 4.4258946950410083
 4.4415336517025032
 4.4572181475662989
 4.4729482946134853
 4.4887242050719935
 4.5045459914179897
 4.5204137663759170
 4.5363276429186294
 4.5522877342685737
 4.5682941538985196
 4.5843470155308008
 4.6004464331396084
 4.6165925209497587
 4.6327853934390033
 4.6490251653368935
 4.6653119516263173
 4.6816458675438266
 4.6980270285801495
 4.7144555504805421
 4.7309315492456783
 4.7474551411320016
 4.7640264426522556
 4.7806455705758273
 4.7973126419298229
 4.8140277739991646
 4.8307910843271156
 4.8476026907164709
 4.8644627112290255
 4.8813712641869769
 4.8983284681731609
 4.9153344420318694
 4.9323893048688383
 4.9494931760525018
 4.9666461752138611
 4.9838484222476671
 5.0011000373127192
 5.0184011408319327
 5.0357518534938830
 5.0531522962524980
 5.0706025903284511
 5.0881028572087645
 5.1056532186476247
 5.1232537966681848
 5.1409047135610182
 5.1586060918863321
 5.1763580544742327
 5.1941607244243686
 5.2120142251077572
 5.2299186801667501
 5.2478742135152299
 5.2658809493401160
 5.2839390121011514
 5.3020485265320936
 5.3202096176404856
 5.3384224107086684
 5.3566870312950483
 5.3750036052338297
 5.3933722586349795
 5.4117931178871110
 5.4302663096551695
 5.4487919608836721
 5.4673701987950931
 5.4860011508920214
 5.5046849449569608
 5.5234217090532232
 5.5422115715255433
 5.5610546609999565
 5.5799511063861340
 5.5989010368755254
 5.6179045819443481
 5.6369618713527130
 5.6560730351454787
 5.6752382036530911
 5.6944575074923787
 5.7137310775668313
 5.7330590450669074
 5.7524415414714074
 5.7718786985474280
 5.7913706483513190
 5.8109175232288566
 5.8305194558172646
 5.8501765790432536
 5.8698890261264278
 5.8896569305778401
 5.9094804262014691
 5.9293596470953753
 5.9492947276510302
 5.9692858025549755
 5.9893330067888906
 6.0094364756306486
 6.0295963446542871
 6.0498127497317213
 6.0700858270319165
 6.0904157130229928
 6.1108025444715670
 6.1312464584449611
 6.1517475923096265
 6.1723060837338872
 6.1929220706876915
 6.2135956914429000
 6.2343270845742014
 6.2551163889606372
 6.2759637437844589
 6.2968692885332498
 6.3178331630002669
 6.3388555072850288
 6.3599364617928389
 6.3810761672377030
 6.4022747646413620
 6.4235323953334333
 6.4448492009540361
 6.4662253234531617
 6.4876609050906424
 6.5091560884391617
 6.5307110163819475
 6.5523258321156881
 6.5740006791505889
 6.5957357013103959
 6.6175310427336633
 6.6393868478745386
 6.6613032615029670
 6.6832804287055048
 6.7053184948863063
 6.7274176057670809
 6.7495779073892122
 6.7717995461123524
 6.7940826686168805
 6.8164274219038701
 6.8388339532948219
 6.8613024104350346
 6.8838329412913035
 6.9064256941546400
 6.9290808176390097
 6.9517984606849739
 6.9745787725567743
 6.9974219028465070
 7.0203280014716611
 7.0432972186782505
 7.0663297050406699
 7.0894256114618690
 7.1125850891742708
 7.1358082897407114
 7.1590953650560571
 7.1824464673459785
 7.2058617491686503
 7.2293413634159629
 7.2528854633127171
 7.2764942024197605
 7.3001677346318932
 7.3239062141808278
 7.3477097956341693
 7.3715786338979186
 7.3955128842151252
 7.4195127021692109
 7.4435782436810882
 7.4677096650139800
 7.4919071227709146
 7.5161707738972741
 7.5405007756802664
 7.5648972857514050
 7.5893604620844766
 7.6138904629999553
 7.6384874471613857
 7.6631515735807083
 7.6878830016144688
 7.7126818909689066
 7.7375484016972553
 7.7624826942021574
 7.7874849292364550
 7.8125552679020664
 7.8376938716539870
 7.8629009022983460
 7.8881765219940414
 7.9135208932535654
 7.9389341789442476
 7.9644165422867852
 7.9899681468595700
 8.0155891565960165
 8.0412797357878247
 8.0670400490845786
 8.0928702614939212
 8.1187705383839006
 8.1447410454822542
 8.1707819488782008
 8.1968934150223784
 8.2230756107281664
 8.2493287031730169
 8.2756528598976065
 8.3020482488077221
 8.3285150381749453
 8.3550533966372633
 8.3816634932003886
 8.4083454972368976
 8.4350995784897140
 8.4619259070696700
 8.4888246534594192
 8.5157959885120533
 8.5428400834517451
 8.5699571098772278
 8.5971472397601296
 8.6244106454449927
 8.6517474996528421
 8.6791579754804378
 8.7066422464010955
 8.7342004862657738
 8.7618328693025553
 8.7895395701208034
 8.8173207637071798
 8.8451766254310940
 8.8731073310424904
 8.9011130566741734
 8.9291939788410186
 8.9573502744431970
 8.9855821207647324
 9.0138896954752372
 9.0422731766310687
